public/phone.svg

<svg height="288" width="288" xmlns="http://www.w3.org/2000/svg"><svg enable-background="new 0 0 60.01 60.01" height="288" viewBox="0 0 60.01 60.01" width="288" xmlns="http://www.w3.org/2000/svg"><path d="m40.224 0h-20.439c-3.584 0-6.5 2.893-6.5 6.449v47.113c0 3.554 2.916 6.448 6.5 6.448h20.438c3.584 0 6.501-2.894 6.501-6.448v-47.113c.001-3.556-2.916-6.449-6.5-6.449zm4.352 53.562c0 2.37-1.952 4.299-4.352 4.299h-20.439c-2.399 0-4.351-1.929-4.351-4.299v-47.113h.001c0-2.371 1.952-4.299 4.351-4.299h20.438c2.399 0 4.352 1.928 4.352 4.299.001 0 .001 47.113 0 47.113zm-2.21-47.247h-24.72c-.297 0-.537.24-.537.537v41.753c0 .296.24.538.537.538h24.72c.297 0 .538-.241.538-.538v-41.753c-.001-.297-.241-.537-.538-.537zm-.537 41.752h-23.647v-40.678h23.646s0 40.678.001 40.678zm-11.823 1.971c-1.811 0-3.285 1.473-3.285 3.284s1.474 3.284 3.285 3.284 3.283-1.474 3.283-3.284c0-1.811-1.472-3.284-3.283-3.284zm0 5.493c-1.219 0-2.21-.991-2.21-2.209s.991-2.21 2.21-2.21c1.218 0 2.209.992 2.209 2.21s-.991 2.209-2.209 2.209zm-3.555-51.327c0-.219.214-.396.478-.396h6.151c.264 0 .477.177.477.396s-.212.396-.476.396h-6.151c-.263 0-.478-.177-.479-.396z" fill="#fff"/></svg></svg>

<svg id="SvgjsSvg1001" width="288" height="288" xmlns="http://www.w3.org/2000/svg" version="1.1" xmlns:xlink="http://www.w3.org/1999/xlink" xmlns:svgjs="http://svgjs.com/svgjs"><defs id="SvgjsDefs1002"></defs><g id="SvgjsG1008" transform="matrix(1,0,0,1,0,0)"><svg xmlns="http://www.w3.org/2000/svg" enable-background="new 0 0 60.01 60.01" viewBox="0 0 60.01 60.01" width="288" height="288"><path fill="#ffffff" d="M40.224,0H19.785c-3.584,0-6.5,2.893-6.5,6.449v47.113c0,3.554,2.916,6.448,6.5,6.448h20.438
		c3.584,0,6.501-2.894,6.501-6.448V6.449C46.725,2.893,43.808,0,40.224,0z M44.576,53.562c0,2.37-1.952,4.299-4.352,4.299H19.785
		c-2.399,0-4.351-1.929-4.351-4.299V6.449h0.001c0-2.371,1.952-4.299,4.351-4.299h20.438c2.399,0,4.352,1.928,4.352,4.299
		C44.577,6.449,44.577,53.562,44.576,53.562z M42.366,6.315h-24.72c-0.297,0-0.537,0.24-0.537,0.537v41.753
		c0,0.296,0.24,0.538,0.537,0.538h24.72c0.297,0,0.538-0.241,0.538-0.538V6.852C42.903,6.555,42.663,6.315,42.366,6.315z
		 M41.829,48.067H18.182V7.389h23.646C41.828,7.389,41.828,48.067,41.829,48.067z M30.006,50.038c-1.811,0-3.285,1.473-3.285,3.284
		s1.474,3.284,3.285,3.284s3.283-1.474,3.283-3.284C33.289,51.511,31.817,50.038,30.006,50.038z M30.006,55.531
		c-1.219,0-2.21-0.991-2.21-2.209s0.991-2.21,2.21-2.21c1.218,0,2.209,0.992,2.209,2.21C32.215,54.54,31.224,55.531,30.006,55.531z
		 M26.451,4.204c0-0.219,0.214-0.396,0.478-0.396h6.151c0.264,0,0.477,0.177,0.477,0.396S33.345,4.6,33.081,4.6H26.93
		C26.667,4.6,26.452,4.423,26.451,4.204z" class="color010002 svgShape"></path></svg></g></svg>
